X:1
T:Title
%%score { ( 1 5 ) | ( 2 3 4 ) }
L:1/8
M:3/4
K:Eb
V:1 treble nm="Grand Piano"
V:5 treble 
V:2 bass 
V:3 bass 
V:4 bass 
V:1
 z2 z2[Q:1/4=94] [EG][C_G] | [B,G]3 E [DF][C_G] | [B,G]4 [_DB]B | [CA]3 [CA] [=B,E]F | %4
[M:2/4] [B,G]4 |[M:1/4] GG |[M:3/4] [DB]3 [CA] [B,DG][A,DF] | [CE]4 [G,CE][G,CE] | %8
 [CF]3 [CF] [B,D][K:bass][B,D] |[M:2/4] [E,G,B,E]4 |[M:1/4][K:treble] [GB][_G=A] | %11
[M:3/4] [B,GB]4 [_Gc][G=A] | [B,GB]4 [B,EG][B,FA] | [EGB]3 [B,GB] [Ac][B,GB] |[M:2/4] [DF]4 | %15
[M:1/4] [EG][FA] |[M:3/4] [EGB]4 [Ac][Ad] | [CAe]4 [_G,Ce][Ec] | [EB][DB] [CE]2 [DF]2 | %19
[M:2/4] [G,E]4 |] %20
V:2
 z2 z2 B,=A, | z B,, z G, A,=A, | z B,, E,2 z _D | z E, A,2 z =B, |[M:2/4] z B,, E,2 | %5
[M:1/4] B,B, |[M:3/4] z F, B,F, z =B,, | z E, G,2 C,B,, | z2 A,2 z2 |[M:2/4] E,,4 |[M:1/4] E,C | %11
[M:3/4] E,E, E,2 =A,C | E,E, E,2 E,E, | E,3 E, [E,A,]E, |[M:2/4] B,4 |[M:1/4] B,B, | %16
[M:3/4] E,E, E,2 EB, | A,,A,, A,,2 =A,,[A,,_G,] | [B,,G,][B,,A,] [C,G,]2 [B,,A,]2 | %19
[M:2/4] [E,,E,]4 |] %20
V:3
 x6 | z2 E,2 z2 | E,,4 G,,2 | A,,4 [A,,E,]2 |[M:2/4] E,,4 |[M:1/4] x2 |[M:3/4] B,,4 B,,2 | C,4 z2 | %8
 z F, z F,, z A, |[M:2/4] x4 |[M:1/4] x2 |[M:3/4] x6 | x6 | x6 |[M:2/4] x4 |[M:1/4] x2 | %16
[M:3/4] x6 | x6 | x6 |[M:2/4] x4 |] %20
V:4
 x6 | E,,4 z2 | x6 | x6 |[M:2/4] x4 |[M:1/4] x2 |[M:3/4] x6 | x6 | A,,4 [B,,F,]2 |[M:2/4] x4 | %10
[M:1/4] x2 |[M:3/4] x6 | x6 | x6 |[M:2/4] x4 |[M:1/4] x2 |[M:3/4] x6 | x6 | x6 |[M:2/4] x4 |] %20
V:5
 x6 | x6 | x6 | x6 |[M:2/4] x4 |[M:1/4] x2 |[M:3/4] x6 | G,2 z2 z2 | x5[K:bass] x |[M:2/4] x4 | %10
[M:1/4][K:treble] x2 |[M:3/4] x6 | x6 | x6 |[M:2/4] x4 |[M:1/4] x2 |[M:3/4] x6 | x6 | x6 | %19
[M:2/4] x4 |] %20

